icons/1_Primary/ArenaNet.svg

<svg xmlns="http://www.w3.org/2000/svg" width="1024" height="1024" fill="none">
   <g clip-path="url(#a)">
      <path fill="#FF837D" d="M512 1024c282.77 0 512-229.23 512-512S794.77 0 512 0 0 229.23 0 512s229.23 512 512 512Z"/>
      <path fill="#fff" d="M200.15 508.441v-35.86a834.735 834.735 0 0 1 65-24v13.88a830.2 830.2 0 0 1 53-15.25v-13.48a805.943 805.943 0 0 1 57.22-11.87v13.36a791.058 791.058 0 0 1 53-7.34v-13.22a827.74 827.74 0 0 1 57.21-3.85v13.19c8.774-.314 17.597-.47 26.47-.47 8.874 0 17.714.156 26.52.47v-13.19a813.389 813.389 0 0 1 57.22 3.85v13.22a812.663 812.663 0 0 1 53 7.34v-13.35a792.2 792.2 0 0 1 57.22 11.88v13.57a786.74 786.74 0 0 1 53 15.25v-13.9a780.017 780.017 0 0 1 65 24v35.8a780.797 780.797 0 0 0-623.66 0l-.2-.03ZM512 460.521a758.673 758.673 0 0 0-311.85 66.48v56.15h65v-32.39a26.5 26.5 0 1 1 53 0v32.42h57.22v-44.95a26.5 26.5 0 1 1 53 0v45h57.22v-51.86a26.473 26.473 0 0 1 26.47-26.47 26.468 26.468 0 0 1 26.47 26.47v51.85h57.22v-45a26.5 26.5 0 1 1 53 0v44.95h57.22v-32.41a26.473 26.473 0 0 1 26.47-26.47 26.468 26.468 0 0 1 26.47 26.47v32.44h65v-56.2A758.594 758.594 0 0 0 512 460.451v.07Z"/>
   </g>
   <defs>
      <clipPath id="a">
         <path fill="#fff" d="M0 0h1024v1024H0z"/>
      </clipPath>
   </defs>
</svg>

<svg width="1024" height="1024" viewBox="0 0 1024 1024" fill="none" xmlns="http://www.w3.org/2000/svg">
<g clip-path="url(#clip0_2_1512)">
<path d="M512 1024C794.77 1024 1024 794.77 1024 512C1024 229.23 794.77 0 512 0C229.23 0 0 229.23 0 512C0 794.77 229.23 1024 512 1024Z" fill="#FF837D"/>
<path d="M200.15 508.441V472.581C221.377 463.721 243.044 455.721 265.15 448.581V462.461C282.544 456.821 300.21 451.737 318.15 447.211V433.731C336.944 429.111 356.017 425.154 375.37 421.861V435.221C392.83 432.194 410.497 429.747 428.37 427.881V414.661C447.244 412.727 466.314 411.444 485.58 410.811V424.001C494.354 423.687 503.177 423.531 512.05 423.531C520.924 423.531 529.764 423.687 538.57 424.001V410.811C557.824 411.431 576.897 412.714 595.79 414.661V427.881C613.644 429.761 631.31 432.207 648.79 435.221V421.871C668.124 425.151 687.197 429.111 706.01 433.751V447.321C723.91 451.801 741.577 456.884 759.01 462.571V448.671C781.11 455.737 802.777 463.737 824.01 472.671V508.471C725.636 465.617 619.484 443.5 512.18 443.5C404.877 443.5 298.725 465.617 200.35 508.471L200.15 508.441ZM512 460.521C404.515 460.34 298.218 483 200.15 527.001V583.151H265.15V550.761C265.15 543.732 267.942 536.992 272.912 532.022C277.882 527.053 284.622 524.261 291.65 524.261C298.679 524.261 305.419 527.053 310.389 532.022C315.358 536.992 318.15 543.732 318.15 550.761V583.181H375.37V538.231C375.37 531.202 378.162 524.462 383.132 519.492C388.102 514.523 394.842 511.731 401.87 511.731C408.899 511.731 415.639 514.523 420.609 519.492C425.578 524.462 428.37 531.202 428.37 538.231V583.231H485.59V531.371C485.59 524.35 488.379 517.618 493.343 512.653C498.307 507.689 505.04 504.901 512.06 504.901C519.081 504.901 525.813 507.689 530.777 512.653C535.742 517.618 538.53 524.35 538.53 531.371V583.221H595.75V538.221C595.75 531.192 598.542 524.452 603.512 519.482C608.482 514.513 615.222 511.721 622.25 511.721C629.279 511.721 636.019 514.513 640.989 519.482C645.958 524.452 648.75 531.192 648.75 538.221V583.171H705.97V550.761C705.97 543.74 708.759 537.008 713.723 532.043C718.687 527.079 725.42 524.291 732.44 524.291C739.461 524.291 746.193 527.079 751.157 532.043C756.122 537.008 758.91 543.74 758.91 550.761V583.201H823.91V527.001C725.831 482.966 619.512 460.281 512 460.451V460.521Z" fill="white"/>
</g>
<defs>
<clipPath id="clip0_2_1512">
<rect width="1024" height="1024" fill="white"/>
</clipPath>
</defs>
</svg>
